images/ICONOS/VALORES/FLEXIBILIDAD ICON.svg

<svg width="51" height="51" viewBox="0 0 51 51" fill="none" xmlns="http://www.w3.org/2000/svg">
<path d="M0 33.6868C0.143453 32.8722 0.24573 32.0483 0.435672 31.2444C1.06527 28.5773 2.2979 26.2186 4.13224 24.1788C4.23186 24.0685 4.32484 23.9529 4.37797 23.8904C4.22655 23.4094 4.01801 22.9841 3.96886 22.5416C3.84002 21.3868 4.6662 20.3742 5.81914 20.2294C7.21781 20.0526 8.6178 19.8852 10.0218 19.755C11.4178 19.6247 12.5561 20.7702 12.4273 22.1576C12.3077 23.4466 12.1125 24.7289 12.0235 26.0193C11.8986 27.8411 10.1068 28.8484 8.44247 27.8159C7.54855 28.7567 6.86183 29.8384 6.37967 31.049C3.55976 38.1133 8.93924 45.7888 16.5329 45.4114C20.9229 45.1935 24.1267 42.9597 25.7764 38.8787C27.4261 34.8004 26.6769 30.9813 23.6737 27.7614C21.2483 25.1608 19.4963 22.2532 19.0155 18.7145C18.1109 12.0542 20.4314 6.71876 25.8893 2.80923C28.2616 1.11093 30.9699 0.255143 33.8841 0.0757455C34.013 0.0677723 34.1405 0.0265774 34.2693 0C34.701 0 35.1327 0 35.5644 0C36.4477 0.127571 37.3403 0.207304 38.2116 0.390688C44.9712 1.81391 50.0757 7.33802 50.8766 14.1923C51.4398 19.0174 50.0704 23.2818 46.8546 26.9375C46.7577 27.0478 46.662 27.1621 46.6408 27.186C46.7896 27.7534 47.0034 28.2358 47.0286 28.7275C47.0858 29.8025 46.2768 30.7394 45.2102 30.8776C43.7797 31.0636 42.3438 31.2231 40.9067 31.3547C39.6395 31.4716 38.4892 30.4098 38.5729 29.1301C38.6725 27.6086 38.8372 26.0857 39.0723 24.5788C39.2835 23.226 40.831 22.4871 42.0888 23.0532C42.2363 23.1197 42.3771 23.2021 42.5471 23.2924C43.8647 21.8798 44.7334 20.2453 45.1239 18.369C46.5584 11.4921 41.1829 5.27295 34.175 5.68889C28.3213 6.03705 23.8265 11.3924 24.476 17.2248C24.747 19.6566 25.7285 21.7416 27.4247 23.4984C30.8875 27.0837 32.4642 31.3773 32.0445 36.3339C31.4746 43.066 26.7247 48.6579 20.2003 50.4319C10.925 52.9554 1.54478 46.8028 0.177988 37.3027C0.123529 36.9266 0.059772 36.5532 0 36.1785C0 35.3479 0 34.5174 0 33.6868ZM34.879 1.67969C34.0236 1.77936 33.1629 1.8458 32.3128 1.98533C24.5105 3.26503 19.1098 11.2462 20.7675 18.9909C21.3984 21.9356 22.8289 24.4034 24.9024 26.5707C27.5775 29.3667 28.6653 32.7566 28.1593 36.5838C27.2189 43.6959 20.454 48.428 13.4235 46.8147C8.79313 45.753 5.6903 42.8215 4.41383 38.2409C3.11479 33.5805 4.34609 29.4876 7.78232 26.0751C8.20205 25.6591 8.66031 25.6724 9.10262 26.0711C9.16372 26.1269 9.21286 26.2093 9.28326 26.2399C9.51173 26.3369 9.77472 26.5202 9.97131 26.4684C10.1241 26.4285 10.2675 26.0963 10.2967 25.8784C10.4375 24.8259 10.5531 23.7695 10.6514 22.7117C10.7709 21.4214 10.7603 21.4214 9.48915 21.525C9.47321 21.5264 9.45594 21.5264 9.44 21.5277C8.35215 21.6499 7.26164 21.7602 6.17777 21.9064C5.99846 21.9303 5.75007 22.0871 5.6996 22.2386C5.64779 22.3941 5.77265 22.6333 5.87227 22.8061C5.96127 22.9589 6.1273 23.0652 6.24684 23.2021C6.58555 23.5927 6.58821 24.0273 6.25348 24.4127C6.13394 24.5509 5.99447 24.6705 5.86829 24.802C2.40948 28.4298 1.02011 32.7393 1.95388 37.6548C3.48803 45.7264 11.2039 50.7469 19.2307 49.0286C25.6117 47.6626 30.3894 41.8408 30.4864 35.32C30.5475 31.1912 29.0997 27.6764 26.2373 24.7143C23.5515 21.9356 22.4105 18.6068 22.7984 14.7558C23.5064 7.73269 30.4984 2.66438 37.3921 4.24574C42.0662 5.31813 45.2355 8.1845 46.5545 12.793C47.8655 17.3736 46.7192 21.4519 43.3693 24.8738C42.7397 25.5156 42.3983 25.4997 41.7222 24.9017C41.5456 24.7462 41.2281 24.5828 41.0501 24.6425C40.8748 24.7023 40.7154 25.0306 40.6848 25.2591C40.5228 26.4937 40.4006 27.7322 40.2718 28.9707C40.2199 29.465 40.4471 29.6976 40.9372 29.6444C42.1911 29.5115 43.445 29.3786 44.6949 29.2152C44.9114 29.1873 45.2474 29.0438 45.282 28.8949C45.3285 28.6956 45.193 28.3886 45.0362 28.2185C44.3044 27.4212 44.2937 27.1581 45.0389 26.3927C48.1962 23.1462 49.636 19.2713 49.2269 14.7504C48.5615 7.39649 42.2854 1.71291 34.879 1.67969Z" fill="url(#paint0_linear_1_2816)"/>
<path d="M30.6883 22.3875C30.4479 22.2798 30.1543 22.1988 29.9245 22.0313C29.6323 21.8187 29.3839 21.5436 29.1316 21.2805C28.6813 20.8101 28.6029 20.2878 28.8739 19.6819C29.2192 18.9098 28.9509 18.2666 28.1659 17.9663C27.527 17.7218 27.2202 17.2726 27.2056 16.6042C27.2003 16.3384 27.2003 16.0727 27.2043 15.8082C27.2149 15.1159 27.5363 14.6614 28.1991 14.4209C28.923 14.1578 29.2153 13.4747 28.8965 12.7811C28.5949 12.1233 28.6839 11.5612 29.1874 11.0549C29.3627 10.8781 29.5393 10.7027 29.716 10.5273C30.2075 10.0409 30.7521 9.94127 31.3963 10.2349C32.1361 10.5725 32.7803 10.2974 33.0725 9.53464C33.3236 8.88216 33.7712 8.54994 34.4725 8.5619C34.7382 8.56589 35.0038 8.56456 35.2682 8.56456C35.923 8.56456 36.356 8.86489 36.6004 9.48281C36.9312 10.3173 37.5315 10.5738 38.3391 10.2217C38.9448 9.95722 39.4668 10.0396 39.937 10.4928C40.1522 10.7001 40.3607 10.9127 40.5693 11.1266C41.0156 11.5838 41.0754 12.1047 40.8389 12.6854C40.4962 13.5226 40.7313 14.1206 41.5509 14.4421C42.1433 14.6747 42.4621 15.0813 42.478 15.7179C42.486 16.0328 42.486 16.3477 42.4793 16.6627C42.4674 17.3192 42.1433 17.7364 41.527 17.9716C40.7393 18.272 40.4936 18.8979 40.8283 19.6952C41.0793 20.2932 41.0143 20.8274 40.5533 21.2978C40.3554 21.4984 40.1588 21.7004 39.957 21.8971C39.4761 22.3702 38.9382 22.4512 38.3165 22.1748C37.5634 21.84 36.9258 22.1004 36.6323 22.8579C36.3813 23.5064 35.9429 23.8519 35.2376 23.8373C34.972 23.8319 34.7063 23.8333 34.442 23.8359C33.7593 23.8452 33.3276 23.513 33.0805 22.8831C32.771 22.0924 32.16 21.8533 31.3644 22.1735C31.1665 22.2506 30.9579 22.3011 30.6883 22.3875ZM30.849 11.8628C30.6033 11.9731 30.412 12.1193 30.598 12.4196C30.9805 13.0402 30.95 13.6342 30.5382 14.2295C30.4466 14.3624 30.3855 14.5299 30.3576 14.6906C30.25 15.3258 29.8515 15.6581 29.2644 15.8454C29.117 15.8919 28.9576 16.0727 28.9204 16.2202C28.9004 16.3012 29.1063 16.5059 29.2431 16.5471C29.8515 16.7344 30.2553 17.0826 30.3669 17.7351C30.3948 17.8946 30.4598 18.0607 30.5515 18.1935C30.954 18.7756 30.9659 19.3523 30.6126 19.9636C30.5515 20.0699 30.5701 20.3025 30.6471 20.3835C30.7242 20.4646 30.9593 20.4938 31.0642 20.4354C31.6911 20.0872 32.2849 20.0792 32.876 20.5111C32.9796 20.5868 33.115 20.6347 33.2439 20.6573C33.92 20.7795 34.3264 21.1676 34.5031 21.8333C34.535 21.9542 34.7222 22.127 34.8179 22.115C34.9534 22.0978 35.1446 21.9542 35.1818 21.8267C35.3758 21.1742 35.7703 20.7729 36.4503 20.6546C36.5938 20.6294 36.7452 20.5722 36.8634 20.4885C37.4266 20.0859 37.9871 20.0805 38.5822 20.4221C38.6938 20.4858 38.9475 20.4858 39.0059 20.4128C39.0909 20.3051 39.0962 20.0978 39.067 19.945C39.0033 19.6088 38.7217 19.1915 38.8372 18.9669C39.2955 18.0806 39.2211 16.7903 40.5587 16.5085C40.653 16.4886 40.7592 16.2999 40.7685 16.1816C40.7765 16.0899 40.6583 15.9159 40.5719 15.8973C39.7285 15.7245 39.3911 15.1265 39.2158 14.3677C39.1826 14.2255 39.1069 14.0873 39.0232 13.9651C38.7376 13.5505 38.7429 13.1319 38.9701 12.6987C39.0312 12.5817 39.1082 12.4595 39.1215 12.3332C39.1334 12.2203 39.0989 12.0648 39.0232 11.9944C38.9515 11.9279 38.7921 11.9093 38.6858 11.9346C38.5105 11.9758 38.3497 12.0741 38.1797 12.1405C37.5355 12.393 35.6281 11.5904 35.3518 10.9525C35.2801 10.7851 35.2376 10.6004 35.1393 10.4502C35.0809 10.3599 34.9401 10.2748 34.8378 10.2748C34.7382 10.2761 34.6093 10.3692 34.5482 10.4595C34.4579 10.5937 34.4181 10.7625 34.3543 10.9153C34.1405 11.4269 32.2676 12.3651 31.735 12.2176C31.5291 12.1605 31.3352 12.0582 31.1359 11.9771C31.0456 11.9386 30.9526 11.9027 30.849 11.8628Z" fill="url(#paint1_linear_1_2816)"/>
<path d="M12.1444 28.7793C12.2373 28.8059 12.4631 28.8285 12.6438 28.9308C13.0263 29.1461 13.3624 29.1275 13.7609 28.9375C14.0557 28.7966 14.2523 28.6451 14.344 28.3341C14.5538 27.6272 15.0267 27.2604 15.7745 27.2684C16.0388 27.2711 16.3045 27.2711 16.5701 27.2724C17.2754 27.2737 17.7018 27.6312 17.9396 28.285C18.1946 28.984 18.884 29.2776 19.5521 28.9667C20.2269 28.6517 20.802 28.7488 21.3187 29.2697C21.4821 29.4345 21.6455 29.5992 21.8102 29.764C22.3149 30.2716 22.4012 30.8351 22.0997 31.4902C21.7902 32.1626 22.0692 32.855 22.7572 33.1061C23.4798 33.3706 23.8065 33.8729 23.7972 34.6224C23.7933 34.8881 23.7999 35.1539 23.784 35.4184C23.7468 36.0243 23.4426 36.4323 22.8741 36.6622C22.0453 36.9984 21.7796 37.6017 22.1236 38.3963C22.3853 39.001 22.3096 39.5246 21.8566 39.9963C21.6614 40.1996 21.4622 40.3989 21.2616 40.5956C20.7834 41.066 20.2534 41.167 19.6265 40.8866C18.8641 40.5451 18.2238 40.8175 17.917 41.5976C17.6686 42.2288 17.2236 42.5451 16.5502 42.5517C16.3018 42.5544 16.0521 42.5517 15.8037 42.5544C15.0891 42.561 14.6189 42.2368 14.3639 41.5591C14.0889 40.8308 13.4195 40.5425 12.7261 40.8627C12.0686 41.1657 11.5068 41.0753 11.0034 40.5677C10.8041 40.3684 10.6036 40.1704 10.4096 39.9644C9.9899 39.5179 9.91552 39.0169 10.1493 38.4495C10.5066 37.5817 10.2742 37.0077 9.42672 36.6622C8.88346 36.4403 8.55537 36.0682 8.52482 35.4715C8.50756 35.1247 8.50357 34.7752 8.5142 34.4283C8.53412 33.7732 8.87416 33.3613 9.48649 33.13C10.2449 32.8443 10.5079 32.1998 10.1812 31.4477C9.91419 30.8324 9.99522 30.3022 10.4468 29.7972C11.1256 29.0451 11.5108 28.778 12.1444 28.7793ZM20.1286 39.2455C20.3677 39.2295 20.5244 38.9226 20.3836 38.6781C20.0316 38.0681 20.0276 37.4914 20.4367 36.9093C20.5204 36.7897 20.5855 36.6422 20.6094 36.4987C20.7236 35.8383 21.0969 35.4423 21.7451 35.2642C21.8832 35.227 22.0917 35.0197 22.0745 34.932C22.0439 34.7845 21.8779 34.5984 21.7305 34.5533C21.1155 34.3659 20.7356 33.9978 20.6187 33.3546C20.5868 33.1792 20.5151 32.9958 20.4115 32.851C20.0303 32.3141 20.0462 31.7852 20.3398 31.2151C20.4102 31.0783 20.3995 30.8324 20.3185 30.7075C20.2694 30.6318 19.9811 30.6344 19.8523 30.7022C19.2891 30.9959 18.7591 31.0384 18.2198 30.6504C18.0764 30.5467 17.8944 30.4683 17.7191 30.4377C17.0523 30.3235 16.6737 29.9341 16.4918 29.2936C16.4546 29.1634 16.2673 29.0145 16.1305 28.9933C16.0362 28.9786 15.8396 29.1487 15.8077 29.2683C15.6244 29.954 15.1954 30.3381 14.5034 30.4657C14.3294 30.4975 14.1514 30.5799 14.0053 30.6823C13.5111 31.0251 13.029 30.9972 12.5096 30.7301C12.3555 30.6504 12.1284 30.7115 11.9345 30.7088C11.9438 30.9042 11.8933 31.1314 11.9743 31.2896C12.2466 31.8145 12.24 32.2982 11.9053 32.7885C11.8136 32.9227 11.7379 33.0835 11.7087 33.243C11.5772 33.9486 11.1907 34.3978 10.484 34.5838C10.3658 34.6144 10.2117 34.8004 10.2131 34.9134C10.2144 35.0277 10.3698 35.2097 10.4893 35.2403C11.1774 35.417 11.5692 35.8369 11.6941 36.5346C11.7246 36.7087 11.811 36.8854 11.9119 37.0329C12.248 37.5259 12.2413 38.0083 11.973 38.5319C11.8933 38.6887 11.9464 38.9133 11.9398 39.1073C12.1297 39.102 12.3489 39.1591 12.5043 39.082C13.0237 38.8256 13.5085 38.7711 13.9999 39.1325C14.1035 39.2096 14.235 39.2654 14.3612 39.2933C15.1117 39.4594 15.6589 39.8329 15.8462 40.6328C15.8675 40.7259 16.0521 40.8295 16.169 40.8388C16.258 40.8455 16.4214 40.7272 16.4426 40.6381C16.6299 39.8422 17.1705 39.4648 17.9236 39.2933C18.1282 39.2468 18.3049 39.0661 18.5094 39.0315C18.8335 38.9757 19.1749 38.9545 19.5003 38.989C19.7195 39.0156 19.9267 39.1604 20.1286 39.2455Z" fill="url(#paint2_linear_1_2816)"/>
<path d="M31.46 16.1936C31.4627 14.3186 32.9716 12.8037 34.8431 12.7983C36.7239 12.793 38.2647 14.3451 38.2488 16.2321C38.2342 18.0912 36.6801 19.6247 34.8298 19.6075C32.961 19.5889 31.4574 18.0673 31.46 16.1936ZM33.1602 16.2082C33.1642 17.153 33.9346 17.9171 34.8697 17.9025C35.7875 17.8879 36.5406 17.1331 36.5513 16.2175C36.5619 15.2807 35.7955 14.5086 34.8537 14.5046C33.9054 14.5006 33.1562 15.2541 33.1602 16.2082Z" fill="url(#paint3_linear_1_2816)"/>
<path d="M19.5375 34.8974C19.5415 36.7844 18.0551 38.286 16.1703 38.2993C14.2922 38.3126 12.7633 36.8123 12.7514 34.9439C12.7394 33.0503 14.2696 31.5022 16.1504 31.5048C18.0193 31.5062 19.5335 33.0237 19.5375 34.8974ZM17.8386 34.8881C17.8307 33.95 17.0443 33.1832 16.1145 33.2045C15.2007 33.2257 14.4516 33.9898 14.4476 34.9041C14.4449 35.8502 15.202 36.6024 16.1531 36.5984C17.1094 36.5931 17.8479 35.8449 17.8386 34.8881Z" fill="url(#paint4_linear_1_2816)"/>
<defs>
<linearGradient id="paint0_linear_1_2816" x1="0" y1="51.0012" x2="51" y2="51.0012" gradientUnits="userSpaceOnUse">
<stop stop-color="#1723FF"/>
<stop offset="1" stop-color="#30E35E"/>
</linearGradient>
<linearGradient id="paint1_linear_1_2816" x1="0" y1="51.0012" x2="51" y2="51.0012" gradientUnits="userSpaceOnUse">
<stop stop-color="#1723FF"/>
<stop offset="1" stop-color="#30E35E"/>
</linearGradient>
<linearGradient id="paint2_linear_1_2816" x1="0" y1="51.0012" x2="51" y2="51.0012" gradientUnits="userSpaceOnUse">
<stop stop-color="#1723FF"/>
<stop offset="1" stop-color="#30E35E"/>
</linearGradient>
<linearGradient id="paint3_linear_1_2816" x1="0" y1="51.0012" x2="51" y2="51.0012" gradientUnits="userSpaceOnUse">
<stop stop-color="#1723FF"/>
<stop offset="1" stop-color="#30E35E"/>
</linearGradient>
<linearGradient id="paint4_linear_1_2816" x1="0" y1="51.0012" x2="51" y2="51.0012" gradientUnits="userSpaceOnUse">
<stop stop-color="#1723FF"/>
<stop offset="1" stop-color="#30E35E"/>
</linearGradient>
</defs>
</svg>

<svg xmlns="http://www.w3.org/2000/svg" width="51" height="51" fill="none"><path fill="url(#a)" d="M0 33.687c.143-.815.246-1.639.436-2.443a15.86 15.86 0 0 1 3.696-7.065c.1-.11.193-.226.246-.289-.151-.48-.36-.906-.41-1.348-.128-1.155.698-2.168 1.851-2.313a127.13 127.13 0 0 1 4.203-.474 2.194 2.194 0 0 1 2.405 2.403c-.12 1.289-.314 2.57-.403 3.861-.125 1.822-1.917 2.83-3.582 1.797-.893.94-1.58 2.022-2.062 3.233-2.82 7.064 2.56 14.74 10.153 14.362 4.39-.218 7.594-2.451 9.243-6.532 1.65-4.079.9-7.898-2.102-11.118-2.426-2.6-4.178-5.508-4.659-9.046-.904-6.66 1.416-11.996 6.874-15.906C28.262 1.111 30.97.255 33.884.076c.129-.008.257-.05.385-.076h1.295c.884.128 1.776.207 2.648.39 6.76 1.424 11.864 6.948 12.665 13.802.563 4.825-.807 9.09-4.022 12.745-.097.11-.193.225-.214.249.149.567.362 1.05.388 1.541.057 1.075-.752 2.012-1.819 2.15-1.43.187-2.866.346-4.303.478-1.267.117-2.418-.945-2.334-2.225a51.3 51.3 0 0 1 .5-4.551c.21-1.353 1.758-2.092 3.016-1.526.147.067.288.15.458.24 1.318-1.413 2.186-3.048 2.577-4.924a10.478 10.478 0 0 0-10.949-12.68c-5.854.348-10.348 5.703-9.699 11.536.271 2.432 1.253 4.517 2.949 6.273 3.462 3.586 5.04 7.88 4.62 12.836-.57 6.732-5.32 12.324-11.845 14.098-9.275 2.523-18.655-3.63-20.022-13.13C.124 36.928.06 36.554 0 36.18v-2.492ZM34.879 1.68c-.855.1-1.716.166-2.566.305-7.803 1.28-13.203 9.261-11.546 17.006.631 2.945 2.062 5.412 4.135 7.58 2.675 2.796 3.763 6.186 3.257 10.013a12.077 12.077 0 0 1-14.735 10.23c-4.63-1.061-7.734-3.992-9.01-8.573-1.3-4.66-.068-8.753 3.368-12.166.42-.416.878-.403 1.32-.004.062.056.11.138.181.169.229.097.492.28.688.228.153-.04.296-.372.326-.59a79.04 79.04 0 0 0 .354-3.166c.12-1.29.11-1.29-1.162-1.187-.016.001-.033.001-.049.003-1.088.122-2.178.232-3.262.378-.18.024-.428.181-.478.333-.052.155.073.394.172.567.09.153.255.26.375.396.339.39.341.825.006 1.21-.12.139-.259.259-.385.39C2.41 28.43 1.02 32.739 1.954 37.655c1.534 8.071 9.25 13.092 17.277 11.374 6.38-1.366 11.158-7.188 11.255-13.709.061-4.129-1.386-7.644-4.249-10.606-2.685-2.778-3.826-6.107-3.439-9.958.708-7.023 7.7-12.092 14.594-10.51 4.674 1.072 7.843 3.938 9.162 8.547 1.311 4.58.165 8.659-3.185 12.08-.63.643-.97.627-1.647.029-.176-.156-.494-.32-.672-.26-.175.06-.335.389-.365.617-.162 1.235-.284 2.473-.413 3.712-.052.494.175.727.665.673 1.254-.132 2.508-.265 3.758-.429.216-.028.552-.171.587-.32.047-.2-.089-.506-.246-.677-.732-.797-.742-1.06.003-1.825 3.157-3.247 4.597-7.122 4.188-11.643-.665-7.354-6.942-13.037-14.348-13.07Z"/><path fill="url(#b)" d="M30.688 22.387c-.24-.107-.534-.188-.764-.356-.292-.212-.54-.487-.792-.75-.45-.47-.53-.993-.258-1.6.345-.771.077-1.414-.708-1.715-.639-.244-.946-.693-.96-1.362a22.717 22.717 0 0 1-.002-.796c.01-.692.332-1.147.995-1.387.724-.263 1.016-.946.697-1.64-.301-.658-.212-1.22.291-1.726l.529-.528c.491-.486 1.036-.586 1.68-.292.74.338 1.384.062 1.676-.7.252-.653.7-.985 1.4-.973.266.004.532.003.796.003.655 0 1.088.3 1.332.918.331.834.931 1.09 1.74.739.605-.265 1.127-.182 1.597.27.215.208.424.42.632.635.447.457.506.978.27 1.558-.343.838-.108 1.436.712 1.757.592.233.911.64.927 1.276.008.315.008.63.001.945-.012.656-.336 1.073-.952 1.309-.788.3-1.033.926-.699 1.723.251.598.186 1.132-.275 1.603-.198.2-.394.402-.596.6-.48.472-1.019.553-1.64.277-.754-.335-1.391-.075-1.685.683-.25.648-.69.994-1.394.98a26.383 26.383 0 0 0-.796-.002c-.683.01-1.114-.323-1.361-.953-.31-.79-.921-1.03-1.717-.71-.198.078-.406.128-.676.215Zm.161-10.524c-.246.11-.437.256-.251.557.383.62.352 1.214-.06 1.81a1.19 1.19 0 0 0-.18.46c-.108.636-.506.968-1.094 1.155a.605.605 0 0 0-.344.375c-.02.081.186.286.323.327.609.187 1.012.536 1.124 1.188.028.16.093.326.184.459.403.582.415 1.158.062 1.77-.061.106-.043.338.034.42.077.08.312.11.417.051.627-.348 1.22-.356 1.812.076a.901.901 0 0 0 .368.146c.676.122 1.082.51 1.26 1.176.031.121.218.294.314.282.135-.017.327-.16.364-.288.194-.653.588-1.054 1.268-1.172a1.05 1.05 0 0 0 .413-.167c.564-.402 1.124-.407 1.72-.066.11.064.364.064.423-.01.085-.107.09-.314.061-.467-.064-.336-.345-.753-.23-.978.458-.886.384-2.177 1.722-2.458.094-.02.2-.21.21-.327.008-.092-.11-.266-.197-.285-.844-.172-1.18-.77-1.356-1.53a1.235 1.235 0 0 0-.193-.402c-.285-.415-.28-.833-.053-1.266.061-.117.138-.24.151-.366.012-.113-.022-.268-.098-.339-.072-.066-.23-.085-.337-.06-.175.042-.336.14-.506.207-.645.252-2.552-.55-2.828-1.188-.072-.168-.114-.353-.213-.503a.424.424 0 0 0-.301-.175c-.1.001-.229.094-.29.184-.09.135-.13.303-.194.456-.213.512-2.086 1.45-2.619 1.303-.206-.057-.4-.16-.6-.24a8.77 8.77 0 0 0-.286-.115Z"/><path fill="url(#c)" d="M12.144 28.78c.093.026.32.048.5.15.382.216.718.198 1.117.008.295-.141.491-.293.583-.604.21-.707.683-1.074 1.43-1.066.265.003.53.003.796.004.705.002 1.132.36 1.37 1.013.255.699.944.993 1.612.682.675-.315 1.25-.218 1.767.303.163.165.326.33.491.494.505.508.591 1.071.29 1.726-.31.673-.03 1.365.657 1.616.723.265 1.05.767 1.04 1.516-.004.266.003.532-.013.796-.037.606-.341 1.014-.91 1.244-.829.336-1.094.94-.75 1.734.261.605.186 1.129-.267 1.6-.196.204-.395.403-.595.6-.479.47-1.009.571-1.636.29-.762-.34-1.402-.069-1.709.712-.248.63-.693.947-1.367.954-.248.002-.498 0-.746.002-.715.007-1.185-.317-1.44-.995-.275-.728-.945-1.017-1.638-.696-.657.303-1.22.212-1.723-.295-.199-.2-.4-.398-.593-.604-.42-.446-.494-.947-.26-1.514.357-.868.124-1.442-.723-1.788-.544-.222-.872-.594-.902-1.19a13.013 13.013 0 0 1-.01-1.044c.02-.655.36-1.067.971-1.298.759-.286 1.022-.93.695-1.682-.267-.616-.186-1.146.266-1.65.679-.753 1.064-1.02 1.697-1.019Zm7.985 10.465c.239-.015.395-.322.255-.567-.352-.61-.356-1.187.053-1.769a1.04 1.04 0 0 0 .172-.41c.115-.66.488-1.057 1.136-1.235.138-.037.347-.244.33-.332a.59.59 0 0 0-.345-.379c-.614-.187-.994-.555-1.111-1.198a1.283 1.283 0 0 0-.207-.504c-.382-.537-.366-1.066-.072-1.636a.595.595 0 0 0-.021-.508c-.05-.075-.338-.073-.467-.005-.563.294-1.093.336-1.632-.052a1.252 1.252 0 0 0-.5-.212c-.668-.114-1.046-.504-1.228-1.144-.037-.13-.225-.28-.361-.3-.095-.015-.291.155-.323.274-.184.686-.613 1.07-1.305 1.198a1.31 1.31 0 0 0-.498.216c-.494.343-.976.315-1.495.048-.155-.08-.382-.018-.575-.021.009.195-.042.422.04.58.272.525.265 1.01-.07 1.5a1.225 1.225 0 0 0-.196.454c-.132.706-.518 1.155-1.225 1.34-.118.031-.272.217-.27.33 0 .115.156.297.275.327.688.177 1.08.597 1.205 1.295.03.174.117.35.218.498.336.493.33.975.061 1.499-.08.157-.027.381-.033.575.19-.005.409.052.564-.025.52-.256 1.005-.31 1.496.05a.973.973 0 0 0 .361.161c.75.166 1.298.54 1.485 1.34.021.093.206.197.323.206.089.007.252-.112.274-.2.187-.797.727-1.174 1.48-1.346.205-.046.382-.227.586-.261a3.65 3.65 0 0 1 .991-.043c.22.027.427.171.629.257Z"/><path fill="url(#d)" d="M31.46 16.194a3.393 3.393 0 0 1 3.383-3.396c1.88-.005 3.422 1.547 3.406 3.434-.015 1.86-1.569 3.393-3.42 3.376a3.405 3.405 0 0 1-3.369-3.414Zm1.7.014a1.695 1.695 0 0 0 1.71 1.695 1.717 1.717 0 0 0 1.681-1.685 1.704 1.704 0 0 0-1.697-1.713 1.677 1.677 0 0 0-1.694 1.703Z"/><path fill="url(#e)" d="M19.538 34.897A3.37 3.37 0 0 1 16.17 38.3a3.383 3.383 0 0 1-3.419-3.355c-.012-1.894 1.519-3.442 3.4-3.44a3.394 3.394 0 0 1 3.387 3.393Zm-1.7-.009c-.007-.938-.794-1.705-1.724-1.683a1.72 1.72 0 0 0-1.666 1.7 1.683 1.683 0 0 0 1.705 1.693 1.672 1.672 0 0 0 1.686-1.71Z"/><defs><linearGradient id="a" x1="0" x2="51" y1="51.001" y2="51.001" gradientUnits="userSpaceOnUse"><stop stop-color="#1723FF"/><stop offset="1" stop-color="#30E35E"/></linearGradient><linearGradient id="b" x1="0" x2="51" y1="51.001" y2="51.001" gradientUnits="userSpaceOnUse"><stop stop-color="#1723FF"/><stop offset="1" stop-color="#30E35E"/></linearGradient><linearGradient id="c" x1="0" x2="51" y1="51.001" y2="51.001" gradientUnits="userSpaceOnUse"><stop stop-color="#1723FF"/><stop offset="1" stop-color="#30E35E"/></linearGradient><linearGradient id="d" x1="0" x2="51" y1="51.001" y2="51.001" gradientUnits="userSpaceOnUse"><stop stop-color="#1723FF"/><stop offset="1" stop-color="#30E35E"/></linearGradient><linearGradient id="e" x1="0" x2="51" y1="51.001" y2="51.001" gradientUnits="userSpaceOnUse"><stop stop-color="#1723FF"/><stop offset="1" stop-color="#30E35E"/></linearGradient></defs></svg>
